X: 37064
T: Silver Spear, The
R: reel
M: 4/4
K: Dmajor
AG|:FA ~A2 BAFA|dfed BcdA|FA ~A2 BA (3FGA|dfed Bcd2|
FA ~A2 BA (3FGA|dfed Bdef|~g3 e ~f3 e|1 dfed ~B2 A2:|2 dfed Bcde||
|:f~a3 bfaf|defd edBd|f~a3 bfaf|defd ~B2 A2|
f~a3 bfaf|defd edef|~g3 e ~f3 e|1 dfed ~B2 A2:|2 dfed edBA||

